assets/symbols/mulberry/full.svg

<svg height="850.394" viewBox="0 0 850.394 850.394" width="850.394" xmlns="http://www.w3.org/2000/svg"><path d="m368 372.249h113.386v113.386h-113.386z" fill="none"/><g fill="#faa41a"><path d="m754.52 160.23-.34 3.19c-5.949 28.72-91.699 51.5-196.609 51.5-104.92 0-190.68-22.78-196.63-51.5l-.34-3.19c0-30.22 88.19-54.7 196.97-54.7 108.769 0 196.949 24.48 196.949 54.7z"/><path d="m754.18 163.42-53.26 505.65c0 46.35-64.18 83.92-143.35 83.92s-143.36-37.57-143.36-83.92l-53.27-505.65c5.95 28.72 91.71 51.5 196.63 51.5 104.91 0 190.66-22.78 196.61-51.5z"/></g><g fill="none"><g stroke="#231f20" stroke-width="21"><path d="m754.52 160.23c0 1.07-.109 2.14-.34 3.19-5.949 28.72-91.699 51.5-196.609 51.5-104.92 0-190.68-22.78-196.63-51.5-.23-1.05-.34-2.12-.34-3.19 0-30.22 88.19-54.7 196.97-54.7 108.769 0 196.949 24.48 196.949 54.7z"/><path d="m360.6 160.23.34 3.19 53.27 505.65c0 46.35 64.19 83.92 143.36 83.92s143.35-37.57 143.35-83.92l53.26-505.65.34-3.19"/></g><path d="m0 0h850.394v850.394h-850.394z"/><path d="m120.849 164.456 195.528.204m-76.898-73.722 78.393 73.993-78.526 73.976m-118.497-74.451v567.544m0 0h71.965m-71.965-273.931h71.965m-71.965-151.207h71.965m-71.965 72.318h71.965m-71.965-149.019h71.965m-71.965 357.204h71.965m-71.965-65.744h71.965m-71.965 135.87h71.965" stroke="#000" stroke-linecap="round" stroke-linejoin="round" stroke-width="14"/></g></svg>

<svg xmlns="http://www.w3.org/2000/svg" width="850.394" height="850.394" viewBox="0 0 850.394 850.394" overflow="visible"><path fill="none" d="M368 372.249h113.386v113.386H368z"/><g fill="#faa41a"><path d="M754.52 160.23l-.34 3.19c-5.949 28.72-91.699 51.5-196.609 51.5-104.92 0-190.68-22.78-196.63-51.5l-.34-3.19c0-30.22 88.19-54.7 196.97-54.7 108.769 0 196.949 24.48 196.949 54.7z"/><path d="M754.18 163.42l-53.26 505.65c0 46.35-64.18 83.92-143.35 83.92s-143.36-37.57-143.36-83.92l-53.27-505.65c5.95 28.72 91.71 51.5 196.63 51.5 104.91 0 190.66-22.78 196.61-51.5z"/></g><g fill="none" stroke="#231f20" stroke-width="21"><path d="M754.52 160.23c0 1.07-.109 2.14-.34 3.19-5.949 28.72-91.699 51.5-196.609 51.5-104.92 0-190.68-22.78-196.63-51.5-.23-1.05-.34-2.12-.34-3.19 0-30.22 88.19-54.7 196.97-54.7 108.769 0 196.949 24.48 196.949 54.7z"/><path d="M360.6 160.23l.34 3.19 53.27 505.65c0 46.35 64.19 83.92 143.36 83.92s143.35-37.57 143.35-83.92l53.26-505.65.34-3.19"/></g><path fill="none" d="M0 0h850.394v850.394H0z"/><path fill="none" stroke="#000" stroke-width="14" stroke-linecap="round" stroke-linejoin="round" d="M120.849 164.456l195.528.204M239.479 90.938l78.393 73.993-78.526 73.976M120.849 164.456V732M120.849 732h71.965M120.849 458.069h71.965M120.849 306.862h71.965M120.849 379.18h71.965M120.849 230.161h71.965M120.849 587.365h71.965M120.849 521.621h71.965M120.849 657.491h71.965"/></svg>
